src/22/actions/view-calendar-week.svg

<svg xmlns="http://www.w3.org/2000/svg" viewBox="0 0 22 22"><path d="M6 3S5 3 5 4H3v15h16V4h-2c0-1-1-1-1-1h-3s-1 0-1 1h-2c0-1-1-1-1-1H6zm0 1h3v1H6V4zm7 0h3v1h-3V4zM4 7h14v11H4V7zm2 1v2h2V8H6zm4 0v2h2V8h-2zm4 0v2h2V8h-2zm0 7v2h2v-2h-2z" fill="currentColor" color="#5d656b"/><path d="M6 11v2h2v-2H6zm4 0v2h2v-2h-2zm4 0v2h2v-2h-2z" fill="#2ecc71"/></svg>

<svg xmlns="http://www.w3.org/2000/svg" viewBox="0 0 22 22">
  <defs id="defs3051">
    <style type="text/css" id="current-color-scheme">
      .ColorScheme-Text {
        color:#5d656b;
      }
      </style>
  </defs>
 <path 
     style="fill:currentColor;fill-opacity:1;stroke:none" 
     d="M 6 3 C 6 3 5 2.99997 5 4 L 3 4 L 3 7 L 3 18 L 3 19 L 19 19 L 19 18 L 19 7 L 19 4 L 17 4 C 17 2.99997 16 3 16 3 L 13 3 C 13 3 12 2.99997 12 4 L 10 4 C 10 2.99997 9 3 9 3 L 6 3 z M 6 4 L 9 4 L 9 5 L 6 5 L 6 4 z M 13 4 L 16 4 L 16 5 L 13 5 L 13 4 z M 4 7 L 18 7 L 18 18 L 4 18 L 4 7 z M 6 8 L 6 10 L 8 10 L 8 8 L 6 8 z M 10 8 L 10 10 L 12 10 L 12 8 L 10 8 z M 14 8 L 14 10 L 16 10 L 16 8 L 14 8 z M 14 15 L 14 17 L 16 17 L 16 15 L 14 15 z "
     class="ColorScheme-Text"
     />
 <path 
     style="fill:#2ecc71;fill-opacity:1;stroke:none" 
     d="M 6 11 L 6 13 L 8 13 L 8 11 L 6 11 z M 10 11 L 10 13 L 12 13 L 12 11 L 10 11 z M 14 11 L 14 13 L 16 13 L 16 11 L 14 11 z "
     />
</svg>
